X: 34863
T: Robbie Hannan's
R: reel
M: 4/4
K: Dmajor
|:d2 AG FDDF|GEEA FDDA|d2 AG FDDg|fdec d2 dA:|
|:defg affa|beed cAAc|1 defg affa|beec d2 AB:|2 BGGB FDDg|fdec d2 dA||

